!!!COM: Bach, Johann Sebastian
!!!OPR: Joh. Seb. Bachs vierstimmige Choralgesänge
!!!XEN: Four-part Chorales
!!!OTL: Chorale 172. Was willt du dich, o meine Seele, kränken
!!!SCT: BWV 425
!!!SCA: Thematisch-systematisches Verzeichnis der musikalischen Werke Johann Sebastian Bach: Bach-Werke-Verzeichnis (Schmieder)
!!!YOR: Bach Gesellschaft Edition xxxix
!!!ENC: Steven Rasmussen
!!!CDT: 1685/3//-1750/7/28/
!!!OCY: Deutschland
!!!YEC: Copyright (c) 1994, 2000 Center for Computer Assisted Research in the Humanities
!!!YEM: Rights to all derivative editions reserved
!!!YEN: United States of America
**kern	**kern	**silbe	**kern	**silbe	**kern	**silbe
*I:[BASSO]	*I:[TENORE]	*I:[TENORE]	*I:[ALTO]	*I:[ALTO]	*I:[SOPRANO]	*I:[SOPRANO]
*clefF4	*clefGv2	*	*clefG2	*	*clefG2	*
*k[]	*k[]	*	*k[]	*	*k[]	*
*a:	*a:	*	*a:	*	*a:	*
*M4/4	*M4/4	*	*M4/4	*	*M4/4	*
8DL	8FL	.	4A	.	4a	Was
8EJ	8GJ	.	.	.	.	.
=1	=1	=1	=1	=1	=1	=1
8FL	4A	.	4A	.	4.d	willt
8GJ	.	.	.	.	.	.
8FL	4G	.	8BL	.	.	.
8EJ	.	.	8c#J	.	8e	du
4D	4A	.	(8d	.	4f	dich,
.	.	.	4f)	.	.	.
4C	4c	.	.	.	4g	o
.	.	.	8e	.	.	.
=2	=2	=2	=2	=2	=2	=2
4F	8cL	.	8fL	.	8aL	mei-
.	8dJ	.	8gJ	.	8bJ	.
8EL	4e	.	8gL	.	4cc	-ne
8F#J	.	.	8aJ	.	.	.
8GL	4.d	.	8gL	.	4b	See-
8G#J	.	.	8fJ	.	.	.
8AL	.	.	4e	.	4a	-le,
8CJ	8c	.	.	.	.	.
=3	=3	=3	=3	=3	=3	=3
8DL	4.B	.	4f	.	4a	krän-
8BBJ	.	.	.	.	.	.
4E	.	.	4e	.	4g#	.
.	8d	.	.	.	.	.
4AA;	4c;	.	4e;	.	4a;	-ken?
4AA	4c	.	8eL	.	4a	Meinst
.	.	.	8fJ	.	.	.
=4	=4	=4	=4	=4	=4	=4
4BB	8dL	.	8fL	.	4g	du,
.	8GJ	.	16eL	.	.	.
.	.	.	16dJJ	.	.	.
8CL	4c	.	8eL	.	4g	dass
8DJ	.	.	8fJ	.	.	.
8EL	4c	.	8gL	.	4cc	Gott
8CJ	.	.	8eJ	.	.	.
8FL	4c	.	4f	.	4a	nicht
8E-J	.	.	.	.	.	.
=5	=5	=5	=5	=5	=5	=5
8DL	8dL	.	4f	.	8b-	kann
8CJ	8AJ	.	.	.	8a	an
8BB-L	4c	an	8e	an	8g	dich
8AAJ	.	.	4f	dich	8f	ge-
8BB-	8d	dich	.	.	4.g	-den-
8GG	8B-	ge-	16eLL	ge-	.	.
.	.	.	16dJJ	.	.	.
4C	8GL	-den-	4e	-den-	.	.
.	16cL	.	.	.	8f	.
.	16B-JJ	.	.	.	.	.
=6	=6	=6	=6	=6	=6	=6
2FF;	2A;	-ken?	2c;	-ken?	2f;	-ken?
4r	4r	.	4r	.	4r	.
8DL	8FL	.	4d	.	4a	Er
8EJ	8GJ	.	.	.	.	.
=7	=7	=7	=7	=7	=7	=7
4F	4A	.	8dL	.	4d	weiss
.	.	.	8AJ	.	.	.
4C#	4G	.	8B-L	.	4e	gar
.	.	.	8AJ	.	.	.
4D	8FL	.	(8A	.	4f	wohl,
.	8B-J	.	4d)	.	.	.
4E	4B-	.	.	.	4g	wann
.	.	.	8c#	.	.	.
=8	=8	=8	=8	=8	=8	=8
8FL	8AL	.	4d	.	8aL	er
16GL	8GJ	.	.	.	8bJ	.
16FJJ	.	.	.	.	.	.
8EL	8GL	.	8gL	.	4cc	dir
16FL	8AJ	.	8fJ	.	.	.
16EJJ	.	.	.	.	.	.
8DL	8AL	.	8fL	.	4.b	hel-
8BBJ	16G#L	.	8d	.	.	.
.	16F#JJ	.	.	.	.	.
4E	4G#	.	8BJ	.	.	.
.	.	.	16eLL	.	8a	-fen
.	.	.	16dJJ	.	.	.
=9	=9	=9	=9	=9	=9	=9
2AA;	2E;	.	2c;	.	2a;	soll;
4r	4r	.	4r	.	4r	.
4AA	4c	.	4f	.	4a	denn
=10	=10	=10	=10	=10	=10	=10
4BB	8dL	.	8fL	.	4g	er
.	8GJ	.	16eL	.	.	.
.	.	.	16dJJ	.	.	.
8CL	4c	.	8eL	.	4g	ist
8DJ	.	.	8fJ	.	.	.
8EL	4c	.	8gL	.	4cc	selbst
8CJ	.	.	8eJ	.	.	.
8FL	8cL	.	8fL	.	4a	der
8DJ	8fJ	.	8aJ	.	.	.
=11	=11	=11	=11	=11	=11	=11
8GL	(8d	.	8gL	.	8b-L	Gnad'
8AJ	4c#)	.	8fJ	.	8aJ	.
8B-L	.	.	8eL	.	8gL	und
8AJ	8d	.	8dJ	.	8fJ	.
8GL	(8B-	.	8dL	.	4.e	Gü-
8EJ	4G)	.	16c#L	.	.	.
.	.	.	16BJJ	.	.	.
8AL	.	.	4c#	.	.	.
8AAJ	16ALL	.	.	.	8d	-te
.	16GJJ	.	.	.	.	.
=12	=12	=12	=12	=12	=12	=12
2D;	2F;	.	2A;	.	2d;	voll.
4r	4r	.	4r	.	4r	.
4D	8dL	.	4f	.	4a	Halt
.	8cJ	.	.	.	.	.
=13	=13	=13	=13	=13	=13	=13
8DL	8B-L	.	4e	.	8gL	ihm
8C#J	8AJ	.	.	.	8aJ	.
8DL	8AL	.	4d	.	8fL	nur
8BB-J	16GL	.	.	.	8gJ	.
.	16AJJ	.	.	.	.	.
8GGL	8B-L	.	8dL	.	4.e	stil-
8EEJ	8G	.	16c#L	.	.	.
.	.	.	16BJJ	.	.	.
4AA	8E	.	4c#	.	.	.
.	16AL	.	.	.	8d	.
.	16GJJ	.	.	.	.	.
=14	=14	=14	=14	=14	=14	=14
2BB-;	2F;	.	2d;	.	2d;	-le;
4r	4r	.	4r	.	4r	.
4F	8FL	.	4c	.	4a	es
.	8GJ	.	.	.	.	.
=15	=15	=15	=15	=15	=15	=15
8FL	8AL	.	8cL	.	4a	ge-
8EJ	16BL	.	16dL	.	.	.
.	16cJJ	.	16eJJ	.	.	.
8DL	8dL	.	8fL	.	4b	-het
8GJ	8BJ	.	16eL	.	.	.
.	.	.	16dJJ	.	.	.
8EL	8GL	.	8gL	.	4cc	so
16AL	16cL	.	16fL	.	.	.
16GJJ	16BJJ	.	16gJJ	.	.	.
8FL	8AL	.	4a	.	4cc	sein
8EJ	8cJ	.	.	.	.	.
=16	=16	=16	=16	=16	=16	=16
8DL	8fL	.	8aL	.	2b	Wil-
8BBJ	8d	.	16g#L	.	.	.
.	.	.	16f#JJ	.	.	.
4E	8B	.	4g#	.	.	.
.	16eL	.	.	.	.	.
.	16dJJ	.	.	.	.	.
4AA;	4c#;	.	4e;	.	4a;	-le.
8DL	4d	.	4fn	.	4a	Wie
8CJ	.	.	.	.	.	.
=17	=17	=17	=17	=17	=17	=17
8BBL	8dL	.	4f	.	4g	kann
8GGJ	16cL	.	.	.	.	.
.	16BJJ	.	.	.	.	.
8CL	4c	.	8fL	.	4g	er
8BB-J	.	.	16eL	.	.	.
.	.	.	16dJJ	.	.	.
8AAL	4c	.	4e	.	4cc	dich
8GGJ	.	.	.	.	.	.
4FF	8cL	.	4f	.	4a	doch
.	16dL	.	.	.	.	.
.	16cJJ	.	.	.	.	.
=18	=18	=18	=18	=18	=18	=18
8GGL	8B-	.	16fLL	.	8b-	las-
.	.	.	16eJJ	.	.	.
16AAL	8c	.	8f	.	8a	-sen
16BB-JJ	.	.	.	.	.	.
8C	16cLL	.	8e	.	8g	in
.	16B-JJ	.	.	.	.	.
8D	8A	.	8f	.	8f	den
8BB-L	16GLL	.	8fL	.	4.g	Ban-
.	16AJJ	.	.	.	.	.
8GG	4B-	.	16eL	.	.	.
.	.	.	16dJJ	.	.	.
8C	.	.	4e	.	.	.
8CCJ	16cLL	.	.	.	8f	.
.	16B-JJ	.	.	.	.	.
=19	=19	=19	=19	=19	=19	=19
2FF;	2A;	.	2c;	.	2f;	-den.
4r	4r	.	4r	.	4r	.
4F	4F	.	4c	.	4a	Du
=20	=20	=20	=20	=20	=20	=20
4F	4.G	.	4B	.	4d	bist
4E	.	.	4c#	.	4e	ja
.	16FLL	.	.	.	.	.
.	16GJJ	.	.	.	.	.
4D	4.A	.	4d	.	8fL	sei-
.	.	.	.	.	8gJ	.
4AA	.	.	4c#	.	4a	-ne
.	8G	.	.	.	.	.
=21	=21	=21	=21	=21	=21	=21
2BB-;	2F;	.	2d;	.	2d;	Braut.
4r	4r	.	4r	.	4r	.
4AA	4A	.	4c#	.	4e	Wer
=22	=22	=22	=22	=22	=22	=22
8DL	4A	.	4d	.	4f	hofft
8FJ	.	.	.	.	.	.
8AL	4A	.	4c#	.	4e	in
8GJ	.	.	.	.	.	.
4.F	4A	.	8dL	.	4f	Gott
.	.	.	8cnJ	.	.	.
.	8dL	.	8B-L	.	4g	und
8E	16cL	.	8cJ	.	.	.
.	16B-JJ	.	.	.	.	.
=23	=23	=23	=23	=23	=23	=23
8FL	8AL	.	8cL	.	4a	dem
8EJ	16BL	.	16dL	.	.	.
.	16cJJ	.	16eJJ	.	.	.
8DL	8dL	.	8fL	.	4b	ver-
8GJ	8BJ	.	16eL	.	.	.
.	.	.	16dJJ	.	.	.
8CL	8GL	.	8eL	.	8ccL	-traut,
16DL	8dJ	.	16fL	.	8bJ	.
16EJJ	.	.	16gJJ	.	.	.
8FL	4c	.	8aL	.	4a	wird
8EJ	.	.	8gJ	.	.	.
=24	=24	=24	=24	=24	=24	=24
8DL	8cL	.	8f#L	.	4dd	nim-
8EJ	8B-J	.	8gJ	.	.	.
8F#L	8AL	.	8aL	.	4cc	-mer-
8DJ	8dJ	.	8f#J	.	.	.
4.G	8dL	.	4d	.	8b-L	-mehr
.	8cJ	.	.	.	8aJ	.
.	8B-L	.	8eL	.	8gL	zu
8G#	8BnJ	.	8dJ	.	8fJ	.
=25	=25	=25	=25	=25	=25	=25
4A	[4E	.	8dL	.	4.e	Schan-
.	.	.	16c#L	.	.	.
.	.	.	16BJJ	.	.	.
4AA	16ELL]	.	4c#	.	.	.
.	16FJ	.	.	.	.	.
.	8GJ	.	.	.	8d	.
2D;	2F#;	.	2A;	.	2d;	-den.
==|!	==|!	==|!	==|!	==|!	==|!	==|!
*-	*-	*-	*-	*-	*-	*-
!!!RWG: Key is interpreted using the Humdrum key tool.
!!!URL-pdf: https://s9.imslp.org/files/imglnks/usimg/6/6b/IMSLP24489-PMLP09471-CCARH_Bach_Chorales.pdf#page=118 Musedata edition
!!!URL-pdf: https://s9.imslp.org/files/imglnks/usimg/7/7a/IMSLP04155-Bach_-_BGA_253-438.pdf#page=94 	Bach-Gesellschaft Ausgabe, Band 39 (pp.175-276) Leipzig: Breitkopf und Härtel, 1892. Plate B.W. XXXIX.
!!!END: 1994/08/08
!!!EMD: Converted from MuseData to Humdrum Dec 19, 2000, by Andreas Kornstaedt using muse2kern.
!!!EED: Craig Stuart Sapp
!!!EEV: 2024/03/31
!!!filter-keyboard: satb2gs
!!!title: @{OTL} (@{SCT})
